X: 1
T: Old Bush, The
M: 4/4
L: 1/8
R: reel
K: Dmix
|:d^c|A2GA cA~A2|d^cde fdec|A2GA cA~A2|dfed cAd^c|
A2AG cAA2|d^cde ~f3g|af(3gfe fde^c|dfed cA:|
|:Ag|eg~g2 edcd|efge c3d|eg~g2 a2ge|dfed cAAg|
eg~g2 ag~g2|efge defg|af(3gfe fde^c|dfed cA:|
